X:12
T:Les gas de Locmin
R:chanson 
N:
N:p.306
B:Chanson de la Haute-Bretagne - Adolphe Orain - 1902
O:France
A:Pays Gallo
Z:<anamnese@laposte.net> -- http://anamnese.fr.st
M:2/4 Allegro
L:1/16
Q:1/4=120
K:Bb
d ^c d e | d2 c B c B c | d2 !accent!d2 d ^c d e | d3 c B c B A | G4 G2 G2 ||
  "Refrain." B3 A G ^F G A | !accent!B4 d ^c d e | d3 c B c B A | G2 d2 G2 G2 | 
             B3 A G ^F G A | !accent!B4 d ^c d e | d3 c B c B A | G4 z2 ||
